X: 109
T:Summer Garden Jig
T:for Whirl-a-jig
C:Charlene Thomson 2004
M:6/8
L:1/8
Q:3/8=116
K:D
"D"AGF "A7"GFE|"D" D2 F A,2 D|"A7"CD^D E2 C|"D"DE^E F3|AGF "A7"GFE|
[1 "D"DE^E F2F|"E7"E2E EF^G|"A"A3 A,3:|[2 "D"DE^E F2A|"A7"cBA GFE|"D"D3-D2d|
"A"cAA A2e|"D"fdd d2 f|"Em"gfe Bed|"A7"cAA A2G|
"D"FAd f2d|"G"B_BA "Em"G2=B|"A7"Ace gec|[1 "D"d3e2d:|[2"D"d6|]

